; generated by PrusaSlicer 2.3.1+win64 on 2021-06-11 at 01:18:29 UTC

; 

; external perimeters extrusion width = 0.45mm
; perimeters extrusion width = 0.45mm
; infill extrusion width = 0.45mm
; solid infill extrusion width = 0.45mm
; top infill extrusion width = 0.40mm
; first layer extrusion width = 0.42mm

M73 P0 R38
M73 Q0 S38
M201 X1000 Y1000 Z200 E5000 ; sets maximum accelerations, mm/sec^2
M203 X200 Y200 Z12 E120 ; sets maximum feedrates, mm/sec
M204 P1250 R1250 T1250 ; sets acceleration (P, T) and retract acceleration (R), mm/sec^2
M205 X8.00 Y8.00 Z0.40 E4.50 ; sets the jerk limits, mm/sec
M205 S0 T0 ; sets the minimum extruding and travel feed rate, mm/sec
M107
;TYPE:Custom
M862.3 P "MK3S" ; printer model check
M862.1 P0.4 ; nozzle diameter check
M115 U3.9.3 ; tell printer latest fw version
G90 ; use absolute coordinates
M83 ; extruder relative mode
M104 S215 ; set extruder temp
M140 S60 ; set bed temp
M190 S60 ; wait for bed temp
M109 S215 ; wait for extruder temp
G28 W ; home all without mesh bed level
G80 ; mesh bed leveling
G1 Y-3.0 F1000.0 ; go outside print area
G92 E0.0
G1 X60.0 E9.0 F1000.0 ; intro line
G1 X100.0 E12.5 F1000.0 ; intro line
G92 E0.0
M221 S95

; Don't change E values below. Excessive value can damage the printer.
M907 E430 ; set extruder motor current
G21 ; set units to millimeters
G90 ; use absolute coordinates
M83 ; use relative distances for extrusion
M900 K0.05 ; Filament gcode LA 1.5
M900 K30 ; Filament gcode LA 1.0
;LAYER_CHANGE
;Z:0.2
;HEIGHT:0.2
;BEFORE_LAYER_CHANGE
G92 E0.0
;0.2


G1 E-0.80000 F2100.000
G1 Z0.400 F10800.000
;AFTER_LAYER_CHANGE
;0.2
G1 X111.074 Y92.865
G1 Z0.200
G1 E0.80000 F2100.000
M204 S1000
;TYPE:Skirt
;WIDTH:0.42
G1 F1200.000
G1 X120.686 Y92.826 E0.30138
G1 X121.212 Y92.877 E0.01656
G1 X121.722 Y93.030 E0.01669
G1 X122.189 Y93.275 E0.01656
G1 X122.601 Y93.605 E0.01656
G1 X138.078 Y109.545 E0.69661
G1 X138.507 Y110.128 E0.02269
G1 X138.749 Y110.727 E0.02026
G1 X138.846 Y111.366 E0.02026
G1 X138.820 Y119.713 E0.26171
G1 X138.616 Y120.433 E0.02345
G1 X138.226 Y121.071 E0.02345
G1 X137.784 Y121.503 E0.01937
G1 X136.818 Y122.168 E0.03678
G1 X136.191 Y122.418 E0.02116
G1 X135.527 Y122.508 E0.02103
G1 X117.105 Y122.508 E0.57761
G1 X116.443 Y122.424 E0.02090
G1 X115.789 Y122.167 E0.02205
G1 X115.221 Y121.752 E0.02205
G1 X109.142 Y115.674 E0.26951
G1 X108.699 Y115.077 E0.02333
G1 X108.446 Y114.438 E0.02154
G1 X108.359 Y113.752 E0.02167
G1 X108.359 Y96.132 E0.55248
G1 X108.449 Y95.484 E0.02052
G1 X108.688 Y94.875 E0.02052
G1 X109.352 Y93.904 E0.03687
G1 X109.762 Y93.475 E0.01860
G1 X110.379 Y93.082 E0.02294
G1 X111.017 Y92.883 E0.02093
G1 X111.126 Y93.244 F10800.000
G1 F1200.000
G1 X120.686 Y93.203 E0.29974
G1 X121.581 Y93.380 E0.02860
G1 X122.344 Y93.880 E0.02860
G1 X137.804 Y109.805 E0.69590
G1 X138.168 Y110.296 E0.01917
G1 X138.384 Y110.819 E0.01775
G1 X138.469 Y111.383 E0.01787
G1 X138.450 Y119.640 E0.25891
G1 X138.273 Y120.277 E0.02071
G1 X137.930 Y120.837 E0.02060
G1 X137.549 Y121.208 E0.01669
G1 X136.648 Y121.831 E0.03431
G1 X136.102 Y122.051 E0.01846
G1 X135.519 Y122.131 E0.01846
G1 X117.109 Y122.131 E0.57723
G1 X116.540 Y122.060 E0.01799
G1 X115.971 Y121.836 E0.01917
G1 X115.477 Y121.475 E0.01917
G1 X109.416 Y115.415 E0.26874
G1 X109.036 Y114.907 E0.01989
G1 X108.813 Y114.350 E0.01882
G1 X108.736 Y113.754 E0.01882
G1 X108.736 Y96.147 E0.55207
G1 X108.812 Y95.586 E0.01775
G1 X109.018 Y95.058 E0.01775
G1 X109.647 Y94.140 E0.03490
G1 X109.997 Y93.770 E0.01597
G1 X110.544 Y93.421 E0.02036
G1 X111.069 Y93.262 E0.01719
; printing object Vert Clamp2.STL id:0 copy 0
;WIPE_START
G1 F8640.000
G1 X114.360 Y93.242 E-0.76000
;WIPE_END
G1 E-0.04000 F2100.000
G1 Z0.600 F10800.000
G1 X112.225 Y96.697
G1 Z0.200
G1 E0.80000 F2100.000
;TYPE:Perimeter
G1 F1200.000
G1 X119.995 Y96.697 E0.24362
G1 X119.995 Y112.142 E0.48426
G1 X134.976 Y112.142 E0.46972
G1 X134.976 Y118.642 E0.20380
G1 X117.577 Y118.642 E0.54552
G1 X112.225 Y113.289 E0.23733
G1 X112.225 Y96.757 E0.51836
;WIPE_START
G1 F8640.000
G1 X115.516 Y96.732 E-0.76000
;WIPE_END
G1 E-0.04000 F2100.000
G1 Z0.600 F10800.000
G1 X120.372 Y111.765
G1 Z0.200
M73 Q1 S38
G1 E0.80000 F2100.000
;TYPE:External perimeter
G1 F1200.000
G1 X135.353 Y111.765 E0.46972
M73 P1 R38
G1 X135.353 Y119.019 E0.22744
G1 X117.421 Y119.019 E0.56224
G1 X111.848 Y113.446 E0.24713
G1 X111.848 Y96.320 E0.53696
G1 X120.372 Y96.320 E0.26726
G1 X120.372 Y111.705 E0.48238
G1 X120.439 Y112.159 F10800.000
;WIPE_START
G1 F8640.000
G1 X123.663 Y111.718 E-0.76000
;WIPE_END
G1 E-0.04000 F2100.000
G1 Z0.600 F10800.000
G1 X119.882 Y97.574
G1 Z0.200
G1 E0.80000 F2100.000
;TYPE:Solid infill
;WIDTH:0.420676
G1 F1200.000
G1 X119.288 Y96.980 E0.02639
G1 X118.754 Y96.980 E0.01678
G1 X119.712 Y97.939 E0.04258
G1 X119.712 Y98.473 E0.01678
G1 X118.219 Y96.980 E0.06631
G1 X117.685 Y96.980 E0.01678
G1 X119.712 Y99.007 E0.09004
G1 X119.712 Y99.541 E0.01678
G1 X117.151 Y96.980 E0.11377
G1 X116.617 Y96.980 E0.01678
G1 X119.712 Y100.075 E0.13750
G1 X119.712 Y100.610 E0.01678
G1 X116.082 Y96.980 E0.16124
G1 X115.548 Y96.980 E0.01678
G1 X119.712 Y101.144 E0.18497
G1 X119.712 Y101.678 E0.01678
G1 X115.014 Y96.980 E0.20870
G1 X114.480 Y96.980 E0.01678
G1 X119.712 Y102.212 E0.23243
G1 X119.712 Y102.747 E0.01678
G1 X113.946 Y96.980 E0.25616
G1 X113.411 Y96.980 E0.01678
G1 X119.712 Y103.281 E0.27989
G1 X119.712 Y103.815 E0.01678
G1 X112.877 Y96.980 E0.30362
G1 X112.508 Y96.980 E0.01160
G1 X112.508 Y97.145 E0.00518
G1 X119.712 Y104.349 E0.32002
G1 X119.712 Y104.884 E0.01678
G1 X112.508 Y97.679 E0.32002
G1 X112.508 Y98.213 E0.01678
G1 X119.712 Y105.418 E0.32002
G1 X119.712 Y105.952 E0.01678
G1 X112.508 Y98.748 E0.32002
M73 P1 R37
G1 X112.508 Y99.282 E0.01678
G1 X119.712 Y106.486 E0.32002
G1 X119.712 Y107.020 E0.01678
G1 X112.508 Y99.816 E0.32002
G1 X112.508 Y100.350 E0.01678
G1 X119.712 Y107.555 E0.32002
G1 X119.712 Y108.089 E0.01678
G1 X112.508 Y100.885 E0.32002
G1 X112.508 Y101.419 E0.01678
G1 X119.712 Y108.623 E0.32002
G1 X119.712 Y109.157 E0.01678
G1 X112.508 Y101.953 E0.32002
G1 X112.508 Y102.487 E0.01678
G1 X119.712 Y109.692 E0.32002
G1 X119.712 Y110.226 E0.01678
G1 X112.508 Y103.022 E0.32002
M73 Q1 S37
G1 X112.508 Y103.556 E0.01678
G1 X119.712 Y110.760 E0.32002
G1 X119.712 Y111.294 E0.01678
G1 X112.508 Y104.090 E0.32002
G1 X112.508 Y104.624 E0.01678
G1 X119.882 Y111.998 E0.32756
;WIPE_START
G1 F8640.000
G1 X117.554 Y109.671 E-0.76000
;WIPE_END
G1 E-0.04000 F2100.000
G1 Z0.600 F10800.000
G1 X134.029 Y112.255
G1 Z0.200
G1 E0.80000 F2100.000
G1 F1200.000
G1 X134.693 Y112.920 E0.02952
G1 X134.693 Y113.454 E0.01678
G1 X133.664 Y112.425 E0.04571
G1 X133.130 Y112.425 E0.01678
G1 X134.693 Y113.988 E0.06944
G1 X134.693 Y114.522 E0.01678
G1 X132.596 Y112.425 E0.09317
G1 X132.061 Y112.425 E0.01678
G1 X134.693 Y115.056 E0.11690
G1 X134.693 Y115.591 E0.01678
G1 X131.527 Y112.425 E0.14063
G1 X130.993 Y112.425 E0.01678
G1 X134.693 Y116.125 E0.16437
G1 X134.693 Y116.659 E0.01678
G1 X130.459 Y112.425 E0.18810
G1 X129.925 Y112.425 E0.01678
G1 X134.693 Y117.193 E0.21183
G1 X134.693 Y117.728 E0.01678
G1 X129.390 Y112.425 E0.23556
G1 X128.856 Y112.425 E0.01678
G1 X134.693 Y118.262 E0.25929
G1 X134.693 Y118.359 E0.00305
G1 X134.256 Y118.359 E0.01373
G1 X128.322 Y112.425 E0.26361
G1 X127.788 Y112.425 E0.01678
G1 X133.722 Y118.359 E0.26361
G1 X133.188 Y118.359 E0.01678
G1 X127.253 Y112.425 E0.26361
G1 X126.719 Y112.425 E0.01678
G1 X132.653 Y118.359 E0.26361
G1 X132.119 Y118.359 E0.01678
G1 X126.185 Y112.425 E0.26361
G1 X125.651 Y112.425 E0.01678
M73 Q2 S37
G1 X131.585 Y118.359 E0.26361
M73 P2 R37
G1 X131.051 Y118.359 E0.01678
G1 X125.116 Y112.425 E0.26361
G1 X124.582 Y112.425 E0.01678
G1 X130.516 Y118.359 E0.26361
G1 X129.982 Y118.359 E0.01678
G1 X124.048 Y112.425 E0.26361
G1 X123.514 Y112.425 E0.01678
G1 X129.448 Y118.359 E0.26361
G1 X128.914 Y118.359 E0.01678
G1 X122.980 Y112.425 E0.26361
G1 X122.445 Y112.425 E0.01678
G1 X128.380 Y118.359 E0.26361
G1 X127.845 Y118.359 E0.01678
G1 X121.911 Y112.425 E0.26361
G1 X121.377 Y112.425 E0.01678
G1 X127.311 Y118.359 E0.26361
G1 X126.777 Y118.359 E0.01678
G1 X120.843 Y112.425 E0.26361
G1 X120.308 Y112.425 E0.01678
G1 X126.243 Y118.359 E0.26361
G1 X125.708 Y118.359 E0.01678
G1 X112.508 Y105.158 E0.58639
G1 X112.508 Y105.693 E0.01678
G1 X125.174 Y118.359 E0.56265
G1 X124.640 Y118.359 E0.01678
G1 X112.508 Y106.227 E0.53892
G1 X112.508 Y106.761 E0.01678
G1 X124.106 Y118.359 E0.51519
G1 X123.572 Y118.359 E0.01678
G1 X112.508 Y107.295 E0.49146
G1 X112.508 Y107.830 E0.01678
G1 X123.037 Y118.359 E0.46773
G1 X122.503 Y118.359 E0.01678
G1 X112.508 Y108.364 E0.44400
G1 X112.508 Y108.898 E0.01678
G1 X121.969 Y118.359 E0.42027
G1 X121.435 Y118.359 E0.01678
G1 X112.508 Y109.432 E0.39654
G1 X112.508 Y109.966 E0.01678
G1 X120.900 Y118.359 E0.37281
G1 X120.366 Y118.359 E0.01678
G1 X112.508 Y110.501 E0.34907
G1 X112.508 Y111.035 E0.01678
G1 X119.832 Y118.359 E0.32534
G1 X119.298 Y118.359 E0.01678
G1 X112.508 Y111.569 E0.30161
G1 X112.508 Y112.103 E0.01678
G1 X118.763 Y118.359 E0.27788
G1 X118.229 Y118.359 E0.01678
G1 X112.508 Y112.638 E0.25415
G1 X112.508 Y113.172 E0.01678
G1 X117.865 Y118.529 E0.23796
; stop printing object Vert Clamp2.STL id:0 copy 0
M106 S84.15
;LAYER_CHANGE
;Z:0.35
;HEIGHT:0.15
;BEFORE_LAYER_CHANGE
G92 E0.0
;0.35


;WIPE_START
G1 F8640.000
G1 X115.537 Y116.201 E-0.76000
;WIPE_END
G1 E-0.04000 F2100.000
G1 Z0.600 F10800.000
;AFTER_LAYER_CHANGE
;0.35
M104 S210 ; set temperature
G1 X115.789 Y122.167
G1 Z0.350
G1 E0.80000 F2100.000
;TYPE:Skirt
;WIDTH:0.42
G1 F3000.000
G1 X115.221 Y121.752 E0.01701
G1 X109.142 Y115.674 E0.20788
G1 X108.699 Y115.077 E0.01799
G1 X108.446 Y114.438 E0.01662
G1 X108.359 Y113.752 E0.01671
G1 X108.359 Y96.132 E0.42615
G1 X108.449 Y95.484 E0.01583
G1 X108.688 Y94.875 E0.01583
G1 X109.352 Y93.904 E0.02844
G1 X109.762 Y93.475 E0.01435
G1 X110.379 Y93.082 E0.01770
G1 X111.074 Y92.865 E0.01760
G1 X120.686 Y92.826 E0.23247
G1 X121.212 Y92.877 E0.01277
G1 X121.722 Y93.030 E0.01287
G1 X122.189 Y93.275 E0.01277
G1 X122.601 Y93.605 E0.01277
G1 X138.078 Y109.545 E0.53732
G1 X138.507 Y110.128 E0.01750
G1 X138.749 Y110.727 E0.01563
G1 X138.846 Y111.366 E0.01563
G1 X138.820 Y119.713 E0.20187
G1 X138.616 Y120.433 E0.01809
G1 X138.226 Y121.071 E0.01809
G1 X137.784 Y121.503 E0.01494
G1 X136.818 Y122.168 E0.02837
G1 X136.191 Y122.418 E0.01632
G1 X135.527 Y122.508 E0.01622
G1 X117.105 Y122.508 E0.44554
G1 X116.443 Y122.424 E0.01612
G1 X115.845 Y122.189 E0.01556
G1 X115.981 Y121.841 F10800.000
G1 F3000.000
G1 X115.477 Y121.475 E0.01506
G1 X109.416 Y115.415 E0.20729
G1 X109.036 Y114.907 E0.01534
G1 X108.813 Y114.350 E0.01452
G1 X108.736 Y113.754 E0.01452
G1 X108.736 Y96.147 E0.42584
G1 X108.812 Y95.586 E0.01369
G1 X109.018 Y95.058 E0.01369
G1 X109.647 Y94.140 E0.02692
G1 X109.997 Y93.770 E0.01232
G1 X110.544 Y93.421 E0.01570
G1 X111.166 Y93.232 E0.01570
G1 X120.686 Y93.203 E0.23025
G1 X121.581 Y93.380 E0.02206
G1 X122.344 Y93.880 E0.02206
G1 X137.804 Y109.805 E0.53678
G1 X138.168 Y110.296 E0.01479
G1 X138.384 Y110.819 E0.01369
G1 X138.469 Y111.383 E0.01378
G1 X138.450 Y119.640 E0.19970
G1 X138.273 Y120.277 E0.01598
G1 X137.930 Y120.837 E0.01589
G1 X137.549 Y121.208 E0.01287
G1 X136.648 Y121.831 E0.02647
G1 X136.102 Y122.051 E0.01424
G1 X135.519 Y122.131 E0.01424
G1 X117.109 Y122.131 E0.44524
G1 X116.540 Y122.060 E0.01388
G1 X116.037 Y121.862 E0.01306
; printing object Vert Clamp2.STL id:0 copy 0
;WIPE_START
G1 F8640.000
G1 X115.477 Y121.475 E-0.15722
G1 X113.631 Y119.629 E-0.60278
;WIPE_END
G1 E-0.04000 F2100.000
G1 Z0.750 F10800.000
G1 X120.314 Y111.823
G1 Z0.350
G1 E0.80000 F2100.000
M204 S800
;TYPE:Perimeter
;WIDTH:0.45
G1 F2700.000
G1 X135.300 Y111.823 E0.39047
G1 X135.300 Y118.961 E0.18600
G1 X117.445 Y118.961 E0.46523
G1 X111.906 Y113.422 E0.20412
G1 X111.906 Y96.373 E0.44422
G1 X120.314 Y96.373 E0.21909
M73 Q3 S37
G1 X120.314 Y111.763 E0.40099
M204 S1000
M73 P3 R37
G1 X120.732 Y111.405 F10800.000
M204 S800
;TYPE:External perimeter
G1 F1500.000
G1 X135.483 Y111.405 E0.38434
G1 X135.718 Y111.571 E0.00751
G1 X135.718 Y119.212 E0.19909
G1 X135.483 Y119.379 E0.00751
G1 X117.272 Y119.379 E0.47449
G1 X111.488 Y113.595 E0.21314
G1 X111.488 Y96.191 E0.45348
G1 X111.654 Y95.955 E0.00751
G1 X120.566 Y95.955 E0.23218
G1 X120.732 Y96.191 E0.00751
G1 X120.732 Y111.345 E0.39486
M204 S1000
G1 X120.733 Y111.805 F10800.000
;WIPE_START
G1 F8640.000
G1 X124.023 Y111.358 E-0.76000
;WIPE_END
G1 E-0.04000 F2100.000
G1 Z0.750 F10800.000
G1 X112.877 Y96.498
G1 Z0.350
G1 E0.80000 F2100.000
;TYPE:Solid infill
;WIDTH:0.45062
G1 F4800.000
G1 X112.219 Y97.156 E0.02427
G1 X112.219 Y97.748 E0.01544
G1 X113.281 Y96.686 E0.03917
G1 X113.872 Y96.686 E0.01544
G1 X112.219 Y98.340 E0.06101
G1 X112.219 Y98.931 E0.01544
G1 X114.464 Y96.686 E0.08285
G1 X115.056 Y96.686 E0.01544
G1 X112.219 Y99.523 E0.10469
G1 X112.219 Y100.115 E0.01544
G1 X115.648 Y96.686 E0.12652
G1 X116.239 Y96.686 E0.01544
G1 X112.219 Y100.707 E0.14836
G1 X112.219 Y101.298 E0.01544
G1 X116.831 Y96.686 E0.17020
G1 X117.423 Y96.686 E0.01544
G1 X112.219 Y101.890 E0.19204
G1 X112.219 Y102.482 E0.01544
G1 X118.015 Y96.686 E0.21387
G1 X118.606 Y96.686 E0.01544
G1 X112.219 Y103.074 E0.23571
G1 X112.219 Y103.665 E0.01544
G1 X119.198 Y96.686 E0.25755
G1 X119.790 Y96.686 E0.01544
G1 X112.219 Y104.257 E0.27938
G1 X112.219 Y104.849 E0.01544
G1 X120.001 Y97.067 E0.28717
G1 X120.001 Y97.659 E0.01544
G1 X112.219 Y105.441 E0.28717
G1 X112.219 Y106.032 E0.01544
G1 X120.001 Y98.251 E0.28717
G1 X120.001 Y98.842 E0.01544
G1 X112.219 Y106.624 E0.28717
G1 X112.219 Y107.216 E0.01544
G1 X120.001 Y99.434 E0.28717
G1 X120.001 Y100.026 E0.01544
G1 X112.219 Y107.808 E0.28717
G1 X112.219 Y108.399 E0.01544
G1 X120.001 Y100.618 E0.28717
G1 X120.001 Y101.209 E0.01544
G1 X112.219 Y108.991 E0.28717
G1 X112.219 Y109.583 E0.01544
G1 X120.001 Y101.801 E0.28717
G1 X120.001 Y102.393 E0.01544
G1 X112.219 Y110.175 E0.28717
G1 X112.219 Y110.766 E0.01544
G1 X120.001 Y102.985 E0.28717
G1 X120.001 Y103.576 E0.01544
G1 X112.219 Y111.358 E0.28717
G1 X112.219 Y111.950 E0.01544
G1 X120.001 Y104.168 E0.28717
G1 X120.001 Y104.760 E0.01544
G1 X112.219 Y112.542 E0.28717
G1 X112.219 Y113.133 E0.01544
G1 X120.001 Y105.352 E0.28717
G1 X120.001 Y105.943 E0.01544
G1 X112.436 Y113.508 E0.27918
G1 X112.732 Y113.804 E0.01092
G1 X120.001 Y106.535 E0.26826
G1 X120.001 Y107.127 E0.01544
G1 X113.027 Y114.100 E0.25734
G1 X113.323 Y114.396 E0.01092
G1 X120.001 Y107.719 E0.24642
G1 X120.001 Y108.310 E0.01544
G1 X113.619 Y114.692 E0.23550
G1 X113.915 Y114.988 E0.01092
G1 X120.001 Y108.902 E0.22458
G1 X120.001 Y109.494 E0.01544
G1 X114.211 Y115.284 E0.21366
G1 X114.507 Y115.580 E0.01092
G1 X120.001 Y110.086 E0.20275
G1 X120.001 Y110.677 E0.01544
G1 X114.803 Y115.875 E0.19183
G1 X115.099 Y116.171 E0.01092
G1 X120.001 Y111.269 E0.18091
G1 X120.001 Y111.861 E0.01544
G1 X115.394 Y116.467 E0.16999
G1 X115.690 Y116.763 E0.01092
G1 X120.317 Y112.136 E0.17075
G1 X120.909 Y112.136 E0.01544
G1 X115.986 Y117.059 E0.18167
G1 X116.282 Y117.355 E0.01092
G1 X121.501 Y112.136 E0.19259
G1 X122.093 Y112.136 E0.01544
G1 X116.578 Y117.651 E0.20351
G1 X116.874 Y117.947 E0.01092
G1 X122.684 Y112.136 E0.21443
G1 X123.276 Y112.136 E0.01544
G1 X117.170 Y118.242 E0.22535
G1 X117.466 Y118.538 E0.01092
G1 X123.868 Y112.136 E0.23626
G1 X124.460 Y112.136 E0.01544
G1 X117.948 Y118.648 E0.24030
G1 X118.540 Y118.648 E0.01544
G1 X125.051 Y112.136 E0.24030
G1 X125.643 Y112.136 E0.01544
G1 X119.131 Y118.648 E0.24030
G1 X119.723 Y118.648 E0.01544
G1 X126.235 Y112.136 E0.24030
G1 X126.827 Y112.136 E0.01544
G1 X120.315 Y118.648 E0.24030
G1 X120.907 Y118.648 E0.01544
G1 X127.418 Y112.136 E0.24030
G1 X128.010 Y112.136 E0.01544
G1 X121.498 Y118.648 E0.24030
G1 X122.090 Y118.648 E0.01544
G1 X128.602 Y112.136 E0.24030
G1 X129.194 Y112.136 E0.01544
G1 X122.682 Y118.648 E0.24030
G1 X123.274 Y118.648 E0.01544
G1 X129.785 Y112.136 E0.24030
G1 X130.377 Y112.136 E0.01544
G1 X123.865 Y118.648 E0.24030
G1 X124.457 Y118.648 E0.01544
G1 X130.969 Y112.136 E0.24030
G1 X131.561 Y112.136 E0.01544
